X: 119
T: No_54_They_Covered_Me_with_Sunshine.krn
N: Derived from No_54_They_Covered_Me_with_Sunshine.krn
%%abc-version 2.0
%%abcx-abcm2ps-target-version 5.9.1 (29 Sep 2008)
%%abc-creator hum2abc beta
%%abcx-conversion-date 2019/03/15 08:37:56
%%humdrum-veritas 293597205
%%humdrum-veritas-data 3169019100
%%linebreak <none>
%%barnumbers 0
L: 1/8
M: 2/4
K: Bb clef=bass
G,2 [I:setbarnb 1]| 
B,B,B,2 ||  
[M:3/4]A,B,A,2A,3/G,/ ||  
[M:2/4]G,4- | 
G,3/E,/ E, z | 
B,4 | 
B,A, B,B, ||  
[M:3/4]A,2A,2A,2 | 
G,3/E,/G,2G,3/E,/ ||  
[M:2/4]E,2z2 | 
A,2A,3/G,/ | 
G,2G,G,/E,/ | 
G,2G,3/E,/ | 
E,4 | 
G,3/E,/ G,3/G,/ | 
G,4- | 
G,2z2 |]  



